X:39
T:Road to Banff/ Basil the Retreiver
C:Set attributed to Christine Martin
T:Road to Banff
M:6/8
K:D
||:Add dcd|BAG A3|AdA eAf|g2g ecB|Add dcd|BAG A3|AdA eAf|gec d3:||
a3 fdA|g3 ecB|AcA eAf|g3 efg|a3 fdA|g3 ecB|AdA eAf|gec d3:||
T:Basil the Retriever
M:6/8
K:Bm
||:FBB BAB|dcB cBA|GBB BAB|dcB cBA|A3 cBc|eaf edc|dBB gBf|ecA B3:||:
bBB aBf|BbB aBf|ecB Ace|agf edc|BAB cBc|dcd ede|fBB gBf|ecA B3:||

